X:27
T:Brendan Tonra's
R:jig
M:6/8
L:1/8
K:Dmaj
E|~F3 AFE|EDB, A,B,D|FEF GFG|ABF AFE|
~F3 AFE|EDB, A,B,D|FEF GFG|AFD D2:|
e|f2 d dcd |edc Bcd|f2d dcd|ABF Ade|
f2d dcd|edc Bcd|faf gec|dAF D2:|

